X:1
T:Title
%%score ( 1 2 ) { ( 3 5 7 ) | ( 4 6 ) }
L:1/8
M:4/4
K:F
V:1 treble nm="Strings 1"
V:2 treble 
V:3 bass nm="Grand Piano"
V:5 bass 
V:7 bass 
V:4 bass 
V:6 bass 
V:1
 z4 z2[Q:1/4=100] [Ac]2 | [Ac]4- [Ac]>[Bd] [Ac]>[GB] | [FA]2 [FA]2- [FA]>[A,C] [CF]>[FA] | %3
 [EG]6 [GB]2 | [FA]4- [FA]>[A,C] [CF]>[FA] | [Ac]4- [Ac]>[Bd] [Ac]>[GB] | %6
 [FA]4- [FA]>[A,C] [CF]>[FA] | [EB]6 [CE]2 |[M:3/4] [CF]6 |[M:1/4] F2 |[M:4/4] d6 z2 | %11
 [Ac]>[GB] [FA]>[GB] [Ac]2 [Ac]2 | [GB]>[Ac] [GB]>[Ac] [GB]>[Bd] [Ac]>[GB] | [FA]6 F2 | d6 z2 | %15
 [Ac]>[GB] [FA]>[GB] [Ac]2 [Ac]2 | [Ac]>[Bd] [GB]>[Ac] [FA]>[CF] [EG]>[EG] | %17
[M:7/8] F2 [CF]2 [CF]3 |] %18
V:2
 x8 | x8 | x8 | x8 | x8 | x8 | x8 | x8 |[M:3/4] x6 |[M:1/4] x2 |[M:4/4] z F B2 B>[Bd] [Bd]>[Bd] | %11
 x8 | x8 | x8 | z F B2- B>[Bd] [Bd]>[Bd] | x8 | x8 |[M:7/8] x7 |] %18
V:3
 z8 | z z/ C,/ F,>A,[K:treble] z z/ c/ c>c | c>d c>B A2 z2 | %3
 z z/[K:bass] C,/ E,>G, z z/[K:treble] c/ c>c | c2 c2 c2 z2 | z z/[K:bass] C,/ F,>A, C4- | %6
 C>[K:treble]d c>B A2 z2 | z z/[K:bass] C,/ E,>F, z z/[K:treble] c/ B>B |[M:3/4] A2 A2 A2 | %9
[M:1/4] z2 |[M:4/4] z2 z f f4- | f2 c>c f2 cc | c8- | c>c c>c c2 z2 | z4[K:bass] f4- | %15
 f2[K:treble] z2 z4 | c6 c>B |[M:7/8] A>AA>A A3 |] %18
V:4
 z8 | z8 | z z/ B,/ A,>G, F,2 z2 | z4 z2 E,2 | F,6 z2 | z4 z z/[K:treble] c/ c>c | %6
 c>B,[K:bass] A,>G, F,2 z2 | z4 z2 C,2 |[M:3/4] F,6 |[M:1/4] z2 |[M:4/4] z4 z z/ B,,/ D,>E, | %11
 z z/[K:treble] c/[K:bass] F,2 F,2 F,F, | E,2 C,2 E,2 C,>C, | F,>F, F,>F, F,2 z2 | z8 | %15
 z2 F,2 F,2 F,F, | C,2 E,2 F,>A, C>C, |[M:7/8] [F,,F,]>[F,,F,][F,,F,]>[G,,F,] [F,,F,]3 |] %18
V:5
 x8 | z4[K:treble] C4- | C2 z2 z4 | z4[K:bass] B,2[K:treble] z2 | x8 | x3/2[K:bass] x13/2 | %6
 x3/2[K:treble] x13/2 | z4[K:bass] G,2[K:treble] z2 |[M:3/4] x6 |[M:1/4] x2 |[M:4/4] x8 | x8 | x8 | %13
 x8 | z2 z f[K:bass] z z/ B,,/ D,>E, | z z/[K:treble] c/ c>c f2 cc | x8 |[M:7/8] x7 |] %18
V:6
 x8 | x8 | x8 | x8 | x8 | x11/2[K:treble] x5/2 | x2[K:bass] x6 | x8 |[M:3/4] x6 |[M:1/4] x2 | %10
[M:4/4] x8 | F,2[K:treble][K:bass] z2 z4 | x8 | x8 | x8 | x8 | x8 |[M:7/8] x7 |] %18
V:7
 x8 | x4[K:treble] x4 | x8 | x3/2[K:bass] x4[K:treble] x5/2 | x8 | x3/2[K:bass] x13/2 | %6
 x3/2[K:treble] x13/2 | x3/2[K:bass] x4[K:treble] x5/2 |[M:3/4] x6 |[M:1/4] x2 |[M:4/4] x8 | x8 | %12
 x8 | x8 | x4[K:bass] x4 | F,2[K:treble] z2 z4 | x8 |[M:7/8] x7 |] %18

